X:1518
T:Schottis från Ulrika
R:Schottis
O:Ulrika(?), Södermanland
Z:Håkan Lidén, 2009-04-12
N:Inspelning på [[http://www.sormlandsmusikarkiv.se/ljud/simmings/03.mp3|Sörmlands musikarkiv]]
M:2/4
L:1/8
K:A
e>c A>c | e2 e>a | g>B B>c | d4 | E>G B>e | g2 g>f | e2 A>B | c4 |
e>c A>c | e2 e>a | g>B B>c | d4 | E>G B>e | g>e f>g | a>b a<g | a4 :|
|: f2 d>e | f>A d>f | e>c A>B | c3 e | d>c B>e | g2 g>f | e2 A>B | c4 |
f2 d>e | f>A d>f | e>c A>B | c3 e | d>c B>e | g>e f>g | a>b a<g | a4 :|
(:musicend:)

[[!lite information]]
(:music:)
